X:1
T:pagliac
T:Vesti la Giubba
T:from "Pagliacci"
T:Ruggero Leoncavallo
L:1/8
Q:1/4=46
M:2/4
K:G
V:1 treble nm="Voice" snm="Vo."
V:1
!mf! (e2 ^d>G | B2 B)(B/B/ | !tenuto!B2 ^A>E | G2 G2) | z (F G>A) | !^!B2 B z/ B/ | BB cd | e4 | %8
w: Ves- ti la|giub ba e la|fac- ciain- fa-|ri- na.|La gen- te|pa- ga, e|ri- der vuo- le|gua.|
 g2 f>f | =f3 e | (!tenuto!^d!tenuto!e !tenuto!B!tenuto!=d | !tenuto!d2 c2) | c2 G>A | %13
w: E se Arlec-|chin t'in-|vo- la Co- lom|bi- na,|ri- di, Pa|
 (B2 g) z/ d/ | e2 z/ D/D/D/ | G2 z2 | z G FG | ^AB dg | _a2 _AA | G2 G z | z F B^A | d2 ^cB | %22
w: gliac- cio eo|gnun ap- plau- di-|ra!|Tra- mu ta/in|laz- * zi lo|spas- moed il|pian- to;|im u- na|smor- fiail sin|
 e/e/ z ^d>^c | f2!<(! f2-!<)! | f4 | !>!g2 !>!f>!fff!(e | !>!g2 f2) | %27
w: ghioz- zo e'l do|lor, Ah!|_|Ri- di, Pa-|gliac- cio|
 (3z !>!f!>!g (3!>!a!>!g3/2!>!f/ | (a2 g2) | !>!f2 e>c | B2 (3:2:4!>!F!>!G z/ !>!A/ | %31
w: sul tuo a- mo- rein|fran- to!|Ri- di del|duol, che t'av- ve-|
 B2 !breath!B!>!B | E4 |] %33
w: le- na il|cor!|

